image/pay-box.svg

<svg width="118" height="160" viewBox="0 0 118 160" fill="none" xmlns="http://www.w3.org/2000/svg">
<path d="M23.0004 109.648C21.8173 109.652 20.6503 109.373 19.5969 108.834C18.5436 108.295 17.6344 107.512 16.9453 106.551L1.33546 84.3128C0.466101 83.0657 0 81.5821 0 80.0619C0 78.5417 0.466101 77.058 1.33546 75.811L16.9453 53.5576C17.6301 52.5862 18.5383 51.7935 19.5934 51.2464C20.6485 50.6993 21.8196 50.4137 23.0081 50.4137C24.1966 50.4137 25.3677 50.6993 26.4228 51.2464C27.4779 51.7935 28.3861 52.5862 29.0709 53.5576L44.6808 75.811C45.5502 77.058 46.0163 78.5417 46.0163 80.0619C46.0163 81.5821 45.5502 83.0657 44.6808 84.3128L29.0709 106.566C28.3768 107.525 27.464 108.305 26.4083 108.841C25.3526 109.377 24.1843 109.654 23.0004 109.648ZM11.2775 79.9922L23.0004 96.7171L34.7388 79.9922L23.0159 63.2673L11.2775 79.9922Z" fill="#6F3FF5"/>
<path d="M79.4158 30.6847L60.6932 57.3981C60.4587 57.7304 60.1479 58.0016 59.7868 58.1887C59.4256 58.3759 59.0249 58.4736 58.6181 58.4736C58.2114 58.4736 57.8106 58.3759 57.4495 58.1887C57.0884 58.0016 56.7775 57.7304 56.543 57.3981L37.8049 30.6847C37.5106 30.2563 37.353 29.7488 37.353 29.229C37.353 28.7093 37.5106 28.2017 37.8049 27.7734L56.543 1.07549C56.7775 0.743155 57.0884 0.471989 57.4495 0.284833C57.8106 0.0976775 58.2114 0 58.6181 0C59.0249 0 59.4256 0.0976775 59.7868 0.284833C60.1479 0.471989 60.4587 0.743155 60.6932 1.07549L79.4158 27.8043C79.7117 28.2263 79.8704 28.7292 79.8704 29.2445C79.8704 29.7599 79.7117 30.2628 79.4158 30.6847Z" fill="#FFCC00"/>
<path d="M79.4158 132.211L60.6932 158.924C60.4587 159.257 60.1479 159.528 59.7868 159.715C59.4257 159.902 59.0249 160 58.6181 160C58.2114 160 57.8106 159.902 57.4495 159.715C57.0884 159.528 56.7775 159.257 56.543 158.924L37.8049 132.211C37.5106 131.783 37.353 131.275 37.353 130.755C37.353 130.236 37.5106 129.728 37.8049 129.3L56.543 102.602C56.7775 102.27 57.0884 101.998 57.4495 101.811C57.8106 101.624 58.2114 101.526 58.6181 101.526C59.0249 101.526 59.4257 101.624 59.7868 101.811C60.1479 101.998 60.4587 102.27 60.6932 102.602L79.4158 129.3C79.7186 129.725 79.8813 130.234 79.8813 130.755C79.8813 131.277 79.7186 131.786 79.4158 132.211Z" fill="#FFCC00"/>
<path d="M94.2206 109.648C93.037 109.655 91.8692 109.377 90.8154 108.838C89.7617 108.299 88.8529 107.514 88.1656 106.551L72.5557 84.3129C71.6863 83.0658 71.2202 81.5821 71.2202 80.0619C71.2202 78.5417 71.6863 77.0581 72.5557 75.811L88.1656 53.5576C88.8487 52.5863 89.7554 51.7935 90.8092 51.2463C91.8631 50.699 93.0331 50.4133 94.2206 50.4133C95.4081 50.4133 96.5781 50.699 97.632 51.2463C98.6858 51.7935 99.5925 52.5863 100.276 53.5576L115.886 75.811C116.755 77.0581 117.221 78.5417 117.221 80.0619C117.221 81.5821 116.755 83.0658 115.886 84.3129L100.276 106.566C99.5866 107.527 98.6771 108.308 97.6235 108.845C96.5698 109.381 95.4028 109.656 94.2206 109.648ZM82.4977 79.9922L94.2206 96.7171L105.959 79.9922L94.2206 63.2673L82.4977 79.9922Z" fill="#6F3FF5"/>
</svg>

<svg width="118" height="160" fill="none" xmlns="http://www.w3.org/2000/svg"><path d="M23 109.648a7.417 7.417 0 01-6.055-3.097L1.335 84.313a7.433 7.433 0 010-8.502l15.61-22.253a7.418 7.418 0 0112.126 0L44.68 75.81a7.433 7.433 0 010 8.502l-15.61 22.253a7.451 7.451 0 01-6.07 3.082zM11.277 79.992L23 96.717 34.74 79.992 23.016 63.267 11.278 79.992z" fill="#6F3FF5"/><path d="M79.416 30.685L60.693 57.398a2.54 2.54 0 01-4.15 0L37.805 30.685a2.57 2.57 0 010-2.912L56.543 1.075a2.54 2.54 0 014.15 0l18.723 26.73a2.509 2.509 0 010 2.88zM79.416 132.211l-18.723 26.713A2.533 2.533 0 0158.618 160a2.542 2.542 0 01-2.075-1.076l-18.738-26.713a2.57 2.57 0 010-2.911l18.738-26.698a2.543 2.543 0 013.244-.791c.36.187.672.459.906.791L79.416 129.3a2.508 2.508 0 010 2.911z" fill="#FC0"/><path d="M94.22 109.648a7.382 7.382 0 01-6.054-3.097l-15.61-22.238a7.433 7.433 0 010-8.502l15.61-22.253a7.403 7.403 0 0112.11 0l15.61 22.253a7.436 7.436 0 010 8.502l-15.61 22.253a7.395 7.395 0 01-6.055 3.082zM82.499 79.992L94.22 96.717l11.738-16.725-11.738-16.725-11.723 16.725z" fill="#6F3FF5"/></svg>
